X: 42231
T: Wayside Waggon, The
R: reel
M: 4/4
K: Gmajor
|A2 af ecBA|GEBE cEBE|A2 af ecBA|GABd cAAB|
A2 af ecBA|GEBE cEBE|A2 af ecBA|FGAB cAAB|
AFED CDEC|B,2 B_B =BFFG|AFED CDEC|A,AAB cAAG|
AFED CDEC|B,2 B_B =BFFG|AFED CDEC|A,2 AB cAAG||
G2 ge dBAG|FDAD BDAD|G2 ge dBAG|FGAc BGGA|
G2 ge dBAG|FDAD BDAD|G2 ge dBAG|EFGA BGGA|
GEDC B,CDB,|A,2 A^G AEEF|GEDC B,CDB,|G,GGA BGGF|
GEDC B,CDB,|A,2 A^G AEEF|GEDC B,CDB,|G,2 GA BGGF||

